X:28
T:Honorable Mr. Gray's Strathspey
S:Petrie's Second Collection of Strathspey Reels and Country Dances &c.
Z:Steve Wyrick , 6/5/04
N:Petrie's Second Collection, page 10
% Gore's Index gives earliest publication as Robert Mackintosh's
% "68 New R., Str. & Q./Steps" 1793
L:1/8
M:C
R:Strathspey
K:F
d|:c>df>g (a/g/f/e/) fd|c>d f>a g<G B<d|c>df>g (a/g/f/e/) f>d|c<Af<d         c<FA<d:|
   c<Af<A a<Af<A       |c<Af<c  d<GB<d |c<Af<c a<fg<e        |f<cf<A         d<GB<d |
   c<Af<A a<Af<A       |c<Af<c  d<GB<d |c<Aa<f g<ef<d        |c>f (e/f/g/e/) fFF   |]
